X:1
T: The Humors of Glendart
C:
R:Jig
Q:180
K:D
M:6/8
L:1/16
|:A2|B2A2F2 A2D2D2|F2E2F2 D2F2A2|B2A2F2 A2D2D2|F2E2E2 E2F2A2|B2A2F2 A2D2D2|F2E2F2 D2F2A2|d2c2B2 A2F2E2|F2D2D2 D4A2|
B2A2F2 A2D2D2|F2E2F2 D2F2A2|B2A2F2 A2D2D2|F2E2E2 E2F2A2|B2A2F2 A2D2D2|F2E2F2 D2F2A2|d2c2B2 A2F2E2|F2D2D2 D4A2|
d2e2f2 d4B2|A2B2A2 A2F2D2|d2e2f2 d4f2|e2d2e2 f2d2B2|d2e2f2 e2d2B2|A2F2A2 A2B2c2|d2c2B2 A2F2E2|F2D2D2 D4A2|
d2e2f2 d4B2|A2B2A2 A2F2D2|d2e2f2 d4f2|e2d2e2 f2d2B2|d2e2f2 e2d2B2|A2F2A2 A2B2c2|d2c2B2 A2F2E2|F2D2D2 D4:|
